bots/rsm/circle.svg

<svg width="2048" height="2048" fill="none" xmlns="http://www.w3.org/2000/svg"><rect width="2048" height="2048" rx="1024" fill="url(#a)"/><path fill-rule="evenodd" clip-rule="evenodd" d="M354 478c-35.899 0-65 29.101-65 65v181c0 35.898 29.102 65 65 65h1339c35.9 0 65-29.102 65-65V543c0-35.899-29.1-65-65-65H354Zm1248 283c70.14 0 127-56.86 127-127s-56.86-127-127-127-127 56.86-127 127 56.86 127 127 127Z" fill="#424242"/><g filter="url(#b)"><path fill-rule="evenodd" clip-rule="evenodd" d="M354 868c-35.899 0-65 29.101-65 65v181c0 35.9 29.102 65 65 65h1339c35.9 0 65-29.1 65-65V933c0-35.899-29.1-65-65-65H354Zm1248 283c70.14 0 127-56.86 127-127s-56.86-127-127-127-127 56.86-127 127 56.86 127 127 127Z" fill="#424242"/></g><path fill-rule="evenodd" clip-rule="evenodd" d="M354 1258c-35.899 0-65 29.1-65 65v181c0 35.9 29.102 65 65 65h1339c35.9 0 65-29.1 65-65v-181c0-35.9-29.1-65-65-65H354Zm1248 283c70.14 0 127-56.86 127-127s-56.86-127-127-127-127 56.86-127 127 56.86 127 127 127Z" fill="#424242"/><defs><linearGradient id="a" x1="2048" y1="0" x2="0" y2="2048" gradientUnits="userSpaceOnUse"><stop stop-color="#F27878"/><stop offset="1" stop-color="#D96B6B"/></linearGradient><filter id="b" x="285" y="868" width="1477" height="319" filterUnits="userSpaceOnUse" color-interpolation-filters="sRGB"><feFlood flood-opacity="0" result="BackgroundImageFix"/><feColorMatrix in="SourceAlpha" values="0 0 0 0 0 0 0 0 0 0 0 0 0 0 0 0 0 0 127 0" result="hardAlpha"/><feOffset dy="4"/><feGaussianBlur stdDeviation="2"/><feColorMatrix values="0 0 0 0 0 0 0 0 0 0 0 0 0 0 0 0 0 0 0.25 0"/><feBlend in2="BackgroundImageFix" result="effect1_dropShadow_31037635"/><feBlend in="SourceGraphic" in2="effect1_dropShadow_31037635" result="shape"/></filter></defs></svg>

<svg width="2048" height="2048" viewBox="0 0 2048 2048" fill="none" xmlns="http://www.w3.org/2000/svg">
<rect width="2048" height="2048" rx="1024" fill="url(#paint0_linear_31037635)"/>
<path fill-rule="evenodd" clip-rule="evenodd" d="M354 478C318.101 478 289 507.101 289 543V724C289 759.898 318.102 789 354 789H1693C1728.9 789 1758 759.898 1758 724V543C1758 507.101 1728.9 478 1693 478H354ZM1602 761C1672.14 761 1729 704.14 1729 634C1729 563.86 1672.14 507 1602 507C1531.86 507 1475 563.86 1475 634C1475 704.14 1531.86 761 1602 761Z" fill="#424242"/>
<g filter="url(#filter0_d_31037635)">
<path fill-rule="evenodd" clip-rule="evenodd" d="M354 868C318.101 868 289 897.101 289 933V1114C289 1149.9 318.102 1179 354 1179H1693C1728.9 1179 1758 1149.9 1758 1114V933C1758 897.101 1728.9 868 1693 868H354ZM1602 1151C1672.14 1151 1729 1094.14 1729 1024C1729 953.86 1672.14 897 1602 897C1531.86 897 1475 953.86 1475 1024C1475 1094.14 1531.86 1151 1602 1151Z" fill="#424242"/>
</g>
<path fill-rule="evenodd" clip-rule="evenodd" d="M354 1258C318.101 1258 289 1287.1 289 1323V1504C289 1539.9 318.102 1569 354 1569H1693C1728.9 1569 1758 1539.9 1758 1504V1323C1758 1287.1 1728.9 1258 1693 1258H354ZM1602 1541C1672.14 1541 1729 1484.14 1729 1414C1729 1343.86 1672.14 1287 1602 1287C1531.86 1287 1475 1343.86 1475 1414C1475 1484.14 1531.86 1541 1602 1541Z" fill="#424242"/>
<defs>
<filter id="filter0_d_31037635" x="285" y="868" width="1477" height="319" filterUnits="userSpaceOnUse" color-interpolation-filters="sRGB">
<feFlood flood-opacity="0" result="BackgroundImageFix"/>
<feColorMatrix in="SourceAlpha" type="matrix" values="0 0 0 0 0 0 0 0 0 0 0 0 0 0 0 0 0 0 127 0" result="hardAlpha"/>
<feOffset dy="4"/>
<feGaussianBlur stdDeviation="2"/>
<feColorMatrix type="matrix" values="0 0 0 0 0 0 0 0 0 0 0 0 0 0 0 0 0 0 0.25 0"/>
<feBlend mode="normal" in2="BackgroundImageFix" result="effect1_dropShadow_31037635"/>
<feBlend mode="normal" in="SourceGraphic" in2="effect1_dropShadow_31037635" result="shape"/>
</filter>
<linearGradient id="paint0_linear_31037635" x1="2048" y1="0" x2="0" y2="2048" gradientUnits="userSpaceOnUse">
<stop stop-color="#F27878"/>
<stop offset="1" stop-color="#D96B6B"/>
</linearGradient>
</defs>
</svg>
